_includes/icons/color-idea-bank.svg

<svg fill="#666" height="50" viewBox="0 0 48 48" width="50" xmlns="http://www.w3.org/2000/svg"><path d="m17.5 36h2.1c.4-.6 1.2-1 2.4-1s1.9.4 2.4 1h3.2c7.4 0 13.4-6.6 13.4-14s-6-13-13.5-13h-10c-7.4 0-13.5 6-13.5 12.9 0 8 6.1 14.1 13.5 14.1z" fill="#ff9e80"/><path d="m38 17.5c0 .8-.7 1.5-1.5 1.5s-1.5-.7-1.5-1.5.7-1.5 1.5-1.5 1.5.7 1.5 1.5z" fill="#37474f"/><path d="m28 20c0 3.3-2.7 6-6 6s-6-2.7-6-6 2.7-6 6-6 6 2.7 6 6z" fill="#ffea00"/><path d="m23 25.3h-2v-3.9l-2.6-2.6 1.4-1.4 2.2 2.2 2.2-2.2 1.4 1.4-2.6 2.6z" fill="#fff"/><path d="m19 25v3c0 1 .7 1.8 1.6 2 .2.6.8 1 1.4 1 .7 0 1.2-.4 1.4-1 .9-.2 1.6-1 1.6-2v-3z" fill="#283593"/><path d="m25 28v-1.9l-6 .8v1.1c0 .3.1.6.2.9l5.8-.7c0-.1 0-.2 0-.2z" fill="#5c6bc0"/><path d="m19 38c0 2.4.2 4-2 4h-5c-.3 0-1-.4-1-1 0 0-.1-4.9-.9-7.3 2.1 1.5 4.7 2.3 7.5 2.3h2.1c-.6.6-.7 1.4-.7 2zm-13.3-22.3c.3-.6.7-1.1 1.1-1.6-.5-.6-.8-1.3-.8-2.1 0-1.7 1.3-3 3-3 .6 0 1-.4 1-1s-.4-1-1-1c-2.8 0-5 2.2-5 5 0 1.5.7 2.8 1.7 3.7zm37.2 1.7c-.9-.6-2.5-.8-3.7-1.9 1.1 1.9 1.8 4.1 1.8 6.5 0 2.1-.5 4.1-1.4 6 1-.8 2.4-1.2 3.3-1.7 1.2-.7 1.1-1 1.1-2.2v-4.4c0-1.4.1-1.6-1.1-2.3zm-7.9-5.4c-.1 1.5.2 3.1-2 3-2.6-.1-5-1.9-5-4s1.1-3.2 2.9-4c2.2-1 7.1-.9 7.1-.9s-2.7 1.3-3 5.9zm-1.7 22.6c-1.5.8-3 1.2-4.7 1.4-.3 0-.7.1-1.1.1h-3.2c.5.6.6 1.4.6 2 0 2.4-.2 4.1 2 4.1h4.9c.6 0 1.1-.4 1.1-1 .1-.2 0-4.3.4-6.6z" fill="#ff6e40"/></svg>

<svg xmlns="http://www.w3.org/2000/svg" viewBox="0 0 48 48" width="50" height="50" fill="#666"><path d="M17.5,36h2.1c0.4-0.6,1.2-1,2.4-1s1.9,0.4,2.4,1h3.2C35,36,41,29.4,41,22S35,9,27.5,9h-10 C10.1,9,4,15,4,21.9C4,29.9,10.1,36,17.5,36z" fill="#ff9e80"/><path d="M38,17.5c0,0.8-0.7,1.5-1.5,1.5S35,18.3,35,17.5s0.7-1.5,1.5-1.5S38,16.7,38,17.5z" fill="#37474f"/><path d="M28,20c0,3.3-2.7,6-6,6s-6-2.7-6-6s2.7-6,6-6S28,16.7,28,20z" fill="#ffea00"/><path fill="#fff" d="M23 25.3L21 25.3 21 21.4 18.4 18.8 19.8 17.4 22 19.6 24.2 17.4 25.6 18.8 23 21.4z"/><path d="M19,25v3c0,1,0.7,1.8,1.6,2c0.2,0.6,0.8,1,1.4,1c0.7,0,1.2-0.4,1.4-1c0.9-0.2,1.6-1,1.6-2v-3H19z" fill="#283593"/><path d="M25,28v-1.9l-6,0.8V28c0,0.3,0.1,0.6,0.2,0.9l5.8-0.7C25,28.1,25,28,25,28z" fill="#5c6bc0"/><path d="M19,38c0,2.4,0.2,4-2,4h-5c-0.3,0-1-0.4-1-1c0,0-0.1-4.9-0.9-7.3c2.1,1.5,4.7,2.3,7.5,2.3h2.1 C19.1,36.6,19,37.4,19,38z M5.7,15.7c0.3-0.6,0.7-1.1,1.1-1.6C6.3,13.5,6,12.8,6,12c0-1.7,1.3-3,3-3c0.6,0,1-0.4,1-1 c0-0.6-0.4-1-1-1c-2.8,0-5,2.2-5,5C4,13.5,4.7,14.8,5.7,15.7z M42.9,17.4c-0.9-0.6-2.5-0.8-3.7-1.9c1.1,1.9,1.8,4.1,1.8,6.5 c0,2.1-0.5,4.1-1.4,6c1-0.8,2.4-1.2,3.3-1.7c1.2-0.7,1.1-1,1.1-2.2v-4.4C44,18.3,44.1,18.1,42.9,17.4z M35,12c-0.1,1.5,0.2,3.1-2,3 c-2.6-0.1-5-1.9-5-4s1.1-3.2,2.9-4C33.1,6,38,6.1,38,6.1S35.3,7.4,35,12z M33.3,34.6c-1.5,0.8-3,1.2-4.7,1.4 c-0.3,0-0.7,0.1-1.1,0.1h-3.2c0.5,0.6,0.6,1.4,0.6,2c0,2.4-0.2,4.1,2,4.1h4.9c0.6,0,1.1-0.4,1.1-1C33,41,32.9,36.9,33.3,34.6z" fill="#ff6e40"/></svg>
